packages/foundations/assets/icons/functional/images/audio & video/volume_disabled_32.svg

<svg width="32" height="32" viewBox="0 0 32 32" fill="none" xmlns="http://www.w3.org/2000/svg">
<g clip-path="url(#clip0_184_395)">
<path fill-rule="evenodd" clip-rule="evenodd" d="M27 3.99995C27.547 3.99995 28 4.39995 28 4.99995C28.0042 5.26481 27.9031 5.52052 27.719 5.71095L5.711 27.7109C5.61762 27.8039 5.50666 27.8774 5.38458 27.927C5.26251 27.9766 5.13177 28.0014 5 27.9999C4.454 27.9999 4 27.5999 4 26.9999C4 26.7419 4.09 26.4799 4.281 26.2899L9.156 21.4379L8.625 20.9999H5C4.20435 20.9999 3.44129 20.6839 2.87868 20.1213C2.31607 19.5587 2 18.7956 2 17.9999V13.9999C2 13.2043 2.31607 12.4412 2.87868 11.8786C3.44129 11.316 4.20435 10.9999 5 10.9999H8.625L14.375 6.21395C14.5445 6.07282 14.7585 5.9963 14.979 5.99795C15.1125 5.99431 15.2453 6.01761 15.3696 6.06644C15.4938 6.11526 15.607 6.18863 15.7023 6.28214C15.7976 6.37566 15.873 6.48742 15.9242 6.61074C15.9753 6.73407 16.0011 6.86644 16 6.99995V14.5939L19.719 10.8439C19.5755 10.709 19.4757 10.5342 19.4327 10.342C19.3897 10.1498 19.4053 9.94908 19.4776 9.76586C19.5498 9.58263 19.6754 9.42532 19.8381 9.31426C20.0008 9.20321 20.193 9.14353 20.39 9.14294C20.5714 9.1408 20.7499 9.18854 20.906 9.28095L21.156 9.43695L23.344 7.24995L22.719 6.87495C22.391 6.67795 22.205 6.36094 22.205 6.01594C22.205 5.47594 22.638 4.99295 23.206 4.99295C23.371 4.99295 23.539 5.03195 23.688 5.12495L24.781 5.81295L26.29 4.28995C26.383 4.19663 26.4937 4.12289 26.6156 4.07308C26.7376 4.02328 26.8683 3.99841 27 3.99995ZM14 9.12495L9.656 12.7809C9.46192 12.9135 9.23476 12.9893 9 12.9999H5C4.437 12.9999 4 13.4379 4 13.9999V17.9999C4 18.5629 4.438 18.9999 5 18.9999H9C9.219 18.9999 9.469 19.0939 9.656 19.2189L10.562 19.9999L14 16.5939V9.12495ZM12.25 23.9999L14.378 25.7799C14.5245 25.8988 14.7017 25.9736 14.8891 25.9956C15.0765 26.0176 15.2662 25.9858 15.4362 25.9041C15.6063 25.8223 15.7495 25.6939 15.8493 25.5338C15.9492 25.3738 16.0014 25.1886 16 24.9999V20.2809L12.25 23.9999ZM19.4 21.8619C19.4 22.4059 19.87 22.8749 20.406 22.8749C20.563 22.8749 20.746 22.8119 20.907 22.7199C23.531 21.2159 25 18.8439 25 15.9999C25.0102 14.6827 24.6648 13.3872 24 12.2499L22.531 13.7499C22.813 14.3749 23 15.1249 23 15.9999C23 18.6879 21.312 20.1939 19.904 20.9969C19.7512 21.084 19.6241 21.2098 19.5354 21.3617C19.4467 21.5135 19.4007 21.6861 19.4 21.8619ZM22.205 25.9839C22.205 26.5509 22.662 26.9999 23.219 26.9999C23.3839 27.0023 23.5464 26.9598 23.689 26.8769C25.6077 25.7826 27.2023 24.1997 28.3108 22.2892C29.4193 20.3787 30.0021 18.2087 30 15.9999C30 13.3119 29.125 10.7809 27.594 8.65595L26.156 10.0939C27.3595 11.828 28.0031 13.8891 28 15.9999C28 19.7809 25.969 23.2819 22.718 25.1249C22.5632 25.2088 22.4339 25.3329 22.3436 25.484C22.2533 25.6352 22.2055 25.8079 22.205 25.9839Z" fill="#1A1C1F"/>
</g>
<defs>
<clipPath id="clip0_184_395">
<rect width="32" height="32" fill="white"/>
</clipPath>
</defs>
</svg>

<svg xmlns="http://www.w3.org/2000/svg" width="32" height="32" fill="none"><g clip-path="url(#a)"><path fill="#1A1C1F" fill-rule="evenodd" d="M27 4c.547 0 1 .4 1 1a1 1 0 0 1-.281.711l-22.008 22A1 1 0 0 1 5 28c-.546 0-1-.4-1-1 0-.258.09-.52.281-.71l4.875-4.852L8.625 21H5a3 3 0 0 1-3-3v-4a3 3 0 0 1 3-3h3.625l5.75-4.786a.93.93 0 0 1 .604-.216A.994.994 0 0 1 16 7v7.594l3.719-3.75a.984.984 0 0 1 .671-1.701 1 1 0 0 1 .516.138l.25.156 2.188-2.187-.625-.375c-.328-.197-.514-.514-.514-.86 0-.54.433-1.022 1.001-1.022.165 0 .333.039.482.132l1.093.688L26.29 4.29A.99.99 0 0 1 27 4M14 9.125l-4.344 3.656A1.26 1.26 0 0 1 9 13H5c-.563 0-1 .438-1 1v4c0 .563.438 1 1 1h4c.219 0 .469.094.656.219l.906.78L14 16.595zM12.25 24l2.128 1.78A.995.995 0 0 0 16 25v-4.72zm7.15-2.138c0 .544.47 1.013 1.006 1.013.157 0 .34-.063.501-.155C23.531 21.216 25 18.844 25 16a7.3 7.3 0 0 0-1-3.75l-1.469 1.5c.282.625.469 1.375.469 2.25 0 2.688-1.688 4.194-3.096 4.997a1 1 0 0 0-.504.865m2.805 4.122c0 .567.457 1.016 1.014 1.016a.9.9 0 0 0 .47-.123A12.51 12.51 0 0 0 30 16c0-2.688-.875-5.22-2.406-7.344l-1.438 1.438A10.33 10.33 0 0 1 28 16c0 3.78-2.031 7.282-5.282 9.125a.98.98 0 0 0-.513.859" clip-rule="evenodd"/></g><defs><clipPath id="a"><path fill="#fff" d="M0 0h32v32H0z"/></clipPath></defs></svg>
